X: 05007
T: The ARMAS SCHOTTISCHE
C: Bob McQuillen 20 Sept'80
B: Bob's Note Book 5 #7
%R: schottische, hornpipe
Z: 2021 John Chambers <jc:trillian.mit.edu>
M: C
L: 1/8
K: D	% and Bm
f>e \
| d>ed>B A>BA>G | F>GA>B A>FD>F | G>BA>G F>Ad>e | f2 e>f e>gf>e |
| d>ed>B A>BA>G | F>GA>B A>FD>F | G>Be>d c>de>f | e2d2 d2 :|
|: d>c \
| B>AB>c d>cd>e | f>dB>A B2e>d c>Bc>d e>fd>e | f>ef>g f>ed>c |
| B>AB>c d>cd>e | f>dB>A B2d>e | f>ef>g f>ed>c | d2B2 B2 :|
%%begintext align
%% For my very
%% dear friend and Suomalainen Iss\"a
%% of so many happy years - Armas Kainu -
%%endtext

%%sep 1 1 500

%%sep 1 1 500

